learn-bizapps-pr/achievements/modern-analytics-transition.svg

<svg width="103" height="103" viewBox="0 0 103 103" fill="none" xmlns="http://www.w3.org/2000/svg">
<path d="M51.3769 98.8055C25.5269 98.8055 4.56689 77.8555 4.56689 51.9955C4.56689 26.1355 25.5269 5.18555 51.3769 5.18555C77.2269 5.18555 98.1869 26.1455 98.1869 51.9955C98.1869 77.8455 77.2269 98.8055 51.3769 98.8055Z" fill="url(#paint0_linear_1223:1193)"/>
<path fill-rule="evenodd" clip-rule="evenodd" d="M97.2771 51.9955C97.2771 77.3455 76.7271 97.8955 51.3771 97.8955C26.0271 97.8955 5.47706 77.3455 5.47706 51.9955C5.47706 26.6455 26.0271 6.09547 51.3771 6.09547C76.7271 6.09547 97.2771 26.6455 97.2771 51.9955ZM51.3771 2.35547C78.7971 2.35547 101.017 24.5755 101.017 51.9955C101.017 79.4155 78.7871 101.635 51.3771 101.635C23.9571 101.635 1.73706 79.4055 1.73706 51.9955C1.73706 24.5755 23.9571 2.35547 51.3771 2.35547Z" fill="#F2F1F0"/>
<path fill-rule="evenodd" clip-rule="evenodd" d="M94.4669 51.996C94.4669 75.796 75.1769 95.086 51.3769 95.086C27.5769 95.086 8.28687 75.796 8.28687 51.996C8.28687 28.196 27.5769 8.90602 51.3769 8.90602C75.1769 8.90602 94.4669 28.196 94.4669 51.996ZM51.3769 5.16602C77.2369 5.16602 98.2069 26.136 98.2069 51.996C98.2069 77.856 77.2369 98.826 51.3769 98.826C25.5169 98.826 4.54688 77.856 4.54688 51.996C4.54687 26.136 25.5069 5.16602 51.3769 5.16602Z" fill="url(#paint1_linear_1223:1193)"/>
<path d="M64.6196 46.1616L59.4161 43.1698C59.1195 43.0021 58.7456 43.2149 58.7456 43.5566V45.059L46.0691 45.0396V48.0701C46.2367 48.083 46.1529 48.083 46.0691 48.0895V48.1024H58.7456V49.5918C58.7456 49.9336 59.1131 50.1463 59.4097 49.9787L64.6131 47.0385C64.9549 46.845 64.9549 46.3615 64.6196 46.1616Z" fill="#F2F1F0"/>
<path fill-rule="evenodd" clip-rule="evenodd" d="M43.3413 47.1079V41.2979C43.3387 40.8885 43.1742 40.497 42.8838 40.2085C42.5934 39.92 42.2006 39.7578 41.7913 39.7578H20.5613C20.1519 39.7578 19.7591 39.92 19.4688 40.2085C19.1784 40.497 19.0139 40.8885 19.0112 41.2979V47.1177H13.9211C13.5127 47.1177 13.1211 47.28 12.8323 47.5688C12.5435 47.8577 12.3813 48.2493 12.3813 48.6577V61.0479C12.3813 61.4563 12.5435 61.8479 12.8323 62.1367C13.1211 62.4255 13.5127 62.5879 13.9211 62.5879H19.7512V67.6777C19.7538 68.088 19.9181 68.4809 20.2083 68.771C20.4984 69.0611 20.891 69.2254 21.3013 69.228H41.7812C42.1915 69.2254 42.5842 69.0611 42.8743 68.771C43.1644 68.4809 43.3287 68.088 43.3313 67.6777V61.8477V54.478V47.1079H43.3413Z" fill="black" fill-opacity="0.1028"/>
<path fill-rule="evenodd" clip-rule="evenodd" d="M21.305 37.9082H41.7969C42.6482 37.9082 43.3447 38.6047 43.3447 39.4559V65.8447C43.3447 66.6959 42.6482 67.3924 41.7969 67.3924H21.305C20.4538 67.3924 19.7573 66.6959 19.7573 65.8447V39.4559C19.7573 38.6047 20.4383 37.9082 21.305 37.9082Z" fill="#195C37"/>
<path d="M43.3447 52.6426H31.551V60.0098H43.3447V52.6426Z" fill="#107B42"/>
<path d="M43.3447 45.2754H31.551V52.6426H43.3447V45.2754Z" fill="#22A366"/>
<path d="M31.551 45.2754H19.0144V52.6426H31.551V45.2754Z" fill="#117740"/>
<path fill-rule="evenodd" clip-rule="evenodd" d="M31.551 37.9082H41.797C42.6482 37.9082 43.3447 38.6047 43.3447 39.4559V45.2754H31.551V37.9082Z" fill="#34C481"/>
<path fill-rule="evenodd" clip-rule="evenodd" d="M31.551 37.9082H20.5621C19.7109 37.9082 19.0144 38.6047 19.0144 39.4559V45.2754H31.551V37.9082Z" fill="#21A465"/>
<path fill-rule="evenodd" clip-rule="evenodd" d="M13.9291 45.2793H27.0538C27.905 45.2793 28.6015 45.9758 28.6015 46.827V59.2088C28.6015 60.0601 27.905 60.7566 27.0538 60.7566H13.9291C13.0778 60.7566 12.3813 60.0601 12.3813 59.2088V46.827C12.3813 45.9758 13.0778 45.2793 13.9291 45.2793Z" fill="#137F47"/>
<path fill-rule="evenodd" clip-rule="evenodd" d="M19.037 53.4203L16.3594 48.9629H18.4643L20.2906 52.3369L22.1169 48.9629H24.0671L21.3586 53.3584L24.1754 57.8159H21.9776L20.1668 54.1942L18.325 57.8159H16.0808L19.037 53.4203Z" fill="white"/>
<path d="M85.4529 37.373H77.3127C76.7823 37.373 76.2738 37.5839 75.8987 37.959C75.5236 38.3341 75.3127 38.8426 75.3127 39.373V45.5933H70.2329C69.7775 45.5959 69.3415 45.7781 69.0195 46.1001C68.6975 46.4221 68.5156 46.8581 68.5129 47.3135V53.4834H64.2729C63.6789 53.4834 63.109 53.7191 62.689 54.1392C62.2689 54.5592 62.033 55.1291 62.033 55.7231V67.3335C62.033 67.9276 62.2689 68.4969 62.689 68.917C63.109 69.3371 63.6789 69.5732 64.2729 69.5732H85.4229C85.9533 69.5732 86.4621 69.3624 86.8372 68.9873C87.2122 68.6122 87.4229 68.1037 87.4229 67.5732V39.3232C87.41 38.8067 87.1976 38.3152 86.8303 37.9517C86.4631 37.5881 85.9696 37.3806 85.4529 37.373V37.373Z" fill="black" fill-opacity="0.1028"/>
<path d="M85.4174 67.9591H75.3132V37.7327C75.3132 36.6453 76.1968 35.7617 77.2842 35.7617H85.4174C86.5048 35.7617 87.3884 36.6453 87.3884 37.7327V65.9881C87.3884 67.0756 86.5048 67.9591 85.4174 67.9591Z" fill="url(#paint2_linear_1223:1193)"/>
<path d="M78.8745 67.9586H68.5166V45.6977C68.5166 44.7507 69.2869 43.9805 70.2339 43.9805H78.87C79.817 43.9805 80.5872 44.7507 80.5872 45.6977V66.2368C80.5918 67.1883 79.8215 67.9586 78.8745 67.9586Z" fill="url(#paint3_linear_1223:1193)"/>
<path d="M71.8698 67.9588H64.2713C63.0343 67.9588 62.033 66.9574 62.033 65.7205V54.1075C62.033 52.8705 63.0343 51.8691 64.2713 51.8691H71.8743C73.1113 51.8691 74.1127 52.8705 74.1127 54.1075V65.7205C74.1081 66.9574 73.1068 67.9588 71.8698 67.9588Z" fill="url(#paint4_linear_1223:1193)"/>
<defs>
<linearGradient id="paint0_linear_1223:1193" x1="49.603" y1="-12.794" x2="53.585" y2="132.976" gradientUnits="userSpaceOnUse">
<stop stop-color="#00ABDE"/>
<stop offset="1" stop-color="#007ED8"/>
</linearGradient>
<linearGradient id="paint1_linear_1223:1193" x1="2.80728" y1="-19.6266" x2="98.3348" y2="121.255" gradientUnits="userSpaceOnUse">
<stop stop-color="#007ED8"/>
<stop offset="0.7065" stop-color="#002D4C"/>
</linearGradient>
<linearGradient id="paint2_linear_1223:1193" x1="81.2162" y1="38.7067" x2="81.4731" y2="65.4219" gradientUnits="userSpaceOnUse">
<stop offset="0.00753769" stop-color="#E0A310"/>
<stop offset="1" stop-color="#CA810E"/>
</linearGradient>
<linearGradient id="paint3_linear_1223:1193" x1="74.2309" y1="44.9149" x2="75.0015" y2="73.1713" gradientUnits="userSpaceOnUse">
<stop offset="0.00753769" stop-color="#F2CC40"/>
<stop offset="1" stop-color="#E7B116"/>
</linearGradient>
<linearGradient id="paint4_linear_1223:1193" x1="67.782" y1="53.1077" x2="68.5526" y2="71.3459" gradientUnits="userSpaceOnUse">
<stop stop-color="#F8E17B"/>
<stop offset="0.5302" stop-color="#F6D856"/>
<stop offset="1" stop-color="#F6D856"/>
</linearGradient>
</defs>
</svg>

<svg width="103" height="103" fill="none" xmlns="http://www.w3.org/2000/svg"><path d="M51.377 98.805c-25.85 0-46.81-20.95-46.81-46.81 0-25.86 20.96-46.81 46.81-46.81s46.81 20.96 46.81 46.81-20.96 46.81-46.81 46.81Z" fill="url(#a)"/><path fill-rule="evenodd" clip-rule="evenodd" d="M97.277 51.995c0 25.35-20.55 45.9-45.9 45.9-25.35 0-45.9-20.55-45.9-45.9 0-25.35 20.55-45.9 45.9-45.9 25.35 0 45.9 20.55 45.9 45.9Zm-45.9-49.64c27.42 0 49.64 22.22 49.64 49.64s-22.23 49.64-49.64 49.64c-27.42 0-49.64-22.23-49.64-49.64 0-27.42 22.22-49.64 49.64-49.64Z" fill="#F2F1F0"/><path fill-rule="evenodd" clip-rule="evenodd" d="M94.467 51.996c0 23.8-19.29 43.09-43.09 43.09-23.8 0-43.09-19.29-43.09-43.09 0-23.8 19.29-43.09 43.09-43.09 23.8 0 43.09 19.29 43.09 43.09Zm-43.09-46.83c25.86 0 46.83 20.97 46.83 46.83s-20.97 46.83-46.83 46.83-46.83-20.97-46.83-46.83 20.96-46.83 46.83-46.83Z" fill="url(#b)"/><path d="m64.62 46.162-5.204-2.992a.45.45 0 0 0-.67.387v1.502l-12.677-.02v3.031c.168.013.084.013 0 .02v.012h12.677v1.49c0 .342.367.554.664.387l5.203-2.94a.506.506 0 0 0 .007-.877Z" fill="#F2F1F0"/><path fill-rule="evenodd" clip-rule="evenodd" d="M43.341 47.108v-5.81a1.55 1.55 0 0 0-1.55-1.54h-21.23a1.55 1.55 0 0 0-1.55 1.54v5.82h-5.09a1.54 1.54 0 0 0-1.54 1.54v12.39a1.54 1.54 0 0 0 1.54 1.54h5.83v5.09a1.56 1.56 0 0 0 1.55 1.55h20.48a1.56 1.56 0 0 0 1.55-1.55v-20.57h.01Z" fill="#000" fill-opacity=".103"/><path fill-rule="evenodd" clip-rule="evenodd" d="M21.305 37.908h20.492c.851 0 1.548.697 1.548 1.548v26.389c0 .85-.697 1.547-1.548 1.547H21.305a1.552 1.552 0 0 1-1.548-1.547v-26.39c0-.85.681-1.547 1.548-1.547Z" fill="#195C37"/><path d="M43.345 52.643H31.55v7.367h11.794v-7.367Z" fill="#107B42"/><path d="M43.345 45.275H31.55v7.368h11.794v-7.368Z" fill="#22A366"/><path d="M31.551 45.275H19.014v7.368h12.537v-7.368Z" fill="#117740"/><path fill-rule="evenodd" clip-rule="evenodd" d="M31.551 37.908h10.246c.851 0 1.548.697 1.548 1.548v5.82H31.55v-7.368Z" fill="#34C481"/><path fill-rule="evenodd" clip-rule="evenodd" d="M31.551 37.908H20.562c-.851 0-1.548.697-1.548 1.548v5.82h12.537v-7.368Z" fill="#21A465"/><path fill-rule="evenodd" clip-rule="evenodd" d="M13.93 45.28h13.124c.851 0 1.548.696 1.548 1.547v12.382c0 .851-.697 1.548-1.548 1.548H13.929a1.552 1.552 0 0 1-1.548-1.548V46.827c0-.851.697-1.548 1.548-1.548Z" fill="#137F47"/><path fill-rule="evenodd" clip-rule="evenodd" d="m19.037 53.42-2.678-4.457h2.105l1.827 3.374 1.826-3.374h1.95l-2.708 4.395 2.816 4.458h-2.197l-1.811-3.622-1.842 3.622h-2.244l2.956-4.396Z" fill="#fff"/><path d="M85.453 37.373h-8.14a2 2 0 0 0-2 2v6.22h-5.08a1.73 1.73 0 0 0-1.72 1.72v6.17h-4.24a2.24 2.24 0 0 0-2.24 2.24v11.61a2.239 2.239 0 0 0 2.24 2.24h21.15a2 2 0 0 0 2-2v-28.25a2 2 0 0 0-1.97-1.95Z" fill="#000" fill-opacity=".103"/><path d="M85.417 67.96H75.313V37.732c0-1.088.884-1.971 1.971-1.971h8.133c1.088 0 1.971.883 1.971 1.97v28.256a1.972 1.972 0 0 1-1.97 1.971Z" fill="url(#c)"/><path d="M78.874 67.959H68.517V45.698c0-.947.77-1.718 1.717-1.718h8.636c.947 0 1.717.77 1.717 1.718v20.539a1.713 1.713 0 0 1-1.713 1.722Z" fill="url(#d)"/><path d="M71.87 67.959H64.27a2.237 2.237 0 0 1-2.238-2.239V54.108a2.237 2.237 0 0 1 2.238-2.239h7.603a2.237 2.237 0 0 1 2.239 2.239V65.72a2.244 2.244 0 0 1-2.243 2.238Z" fill="url(#e)"/><defs><linearGradient id="a" x1="49.603" y1="-12.794" x2="53.585" y2="132.976" gradientUnits="userSpaceOnUse"><stop stop-color="#00ABDE"/><stop offset="1" stop-color="#007ED8"/></linearGradient><linearGradient id="b" x1="2.807" y1="-19.627" x2="98.335" y2="121.255" gradientUnits="userSpaceOnUse"><stop stop-color="#007ED8"/><stop offset=".707" stop-color="#002D4C"/></linearGradient><linearGradient id="c" x1="81.216" y1="38.707" x2="81.473" y2="65.422" gradientUnits="userSpaceOnUse"><stop offset=".008" stop-color="#E0A310"/><stop offset="1" stop-color="#CA810E"/></linearGradient><linearGradient id="d" x1="74.231" y1="44.915" x2="75.001" y2="73.171" gradientUnits="userSpaceOnUse"><stop offset=".008" stop-color="#F2CC40"/><stop offset="1" stop-color="#E7B116"/></linearGradient><linearGradient id="e" x1="67.782" y1="53.108" x2="68.553" y2="71.346" gradientUnits="userSpaceOnUse"><stop stop-color="#F8E17B"/><stop offset=".53" stop-color="#F6D856"/><stop offset="1" stop-color="#F6D856"/></linearGradient></defs></svg>
